X:96
T: Der heimkehrende Soldat
N: Q0103M
O: Mitteleuropa, Deutschland (DDR) , Thueringen
N: Anhaengsel; letzte Zeile = Refrain.
R: Ballade, Ehe, Betrug
M: 4/4
L: 1/8
K: G
DD | G3GGGGG | A2D2D2
AA | A3AAAdc | B2G2G2
dc | B2B2B2d2 | d3cc2
cB | A2A2A2e2 | e3dd2
c2 | B2B2A2A2 | G4z2

